modules/hawcons-stroke/icons/three-fingers.svg

<?xml version="1.0" encoding="UTF-8" standalone="no"?>
<svg width="32px" height="32px" viewBox="0 0 32 32" version="1.1" xmlns="http://www.w3.org/2000/svg" xmlns:xlink="http://www.w3.org/1999/xlink" xmlns:sketch="http://www.bohemiancoding.com/sketch/ns">
    <!-- Generator: Sketch 3.0.3 (7891) - http://www.bohemiancoding.com/sketch -->
    <title>icon 32 three fingers</title>
    <desc>Created with Sketch.</desc>
    <defs></defs>
    <g id="Page-1" stroke="none" stroke-width="1" fill="none" fill-rule="evenodd" sketch:type="MSPage">
        <g id="icon-32-three-fingers" sketch:type="MSArtboardGroup" fill="#929292">
            <path d="M19.5,29 C15.7402849,28.9995418 13.5099958,26.9488875 11.7473755,23.9830936 C7.83536199,17.4007216 5.03386293,14.3887562 6.12103271,13.2957153 C7.23162978,12.1791206 9.94160039,14.5979243 12,16.7983451 L12,5.50524116 C12,4.66712976 12.6715729,4 13.5,4 C14.3342028,4 15,4.67391942 15,5.50524116 L15,16 L16,16 L16,4.49089813 C16,3.67622006 16.6715729,3 17.5,3 C18.3342028,3 19,3.66749783 19,4.49089813 L19,15 L20,15 L20,5.5032506 C20,4.66543579 20.6715729,4 21.5,4 C22.3342028,4 23,4.67302822 23,5.5032506 L23,16 L24,16 L24,15.5016756 C24,14.6711894 24.6715729,14 25.5,14 C26.3342028,14 27,14.6723231 27,15.5016756 L27,17.7491622 L27,21.5 C27,25.6421358 23.6421358,29 19.5,29 L19.5,29 Z M28,21.5 C28,26.1944206 24.1944206,30 19.5,30.0000003 C16.3870848,30.0000003 13.101807,28.5474856 10.8408204,24.4282229 C7.57733174,18.4825159 3.40385286,14.5832077 5.39111327,12.5959473 C6.81276236,11.1742982 9.04484162,12.5381668 11,14.3667868 L11,14.3667868 L11,5.50282288 C11,4.12598062 12.1192881,3 13.5,3 C14.1384389,3 14.7176939,3.23628158 15.1574968,3.62568646 C15.5122491,2.67469496 16.427214,2 17.5,2 C18.5803191,2 19.4911778,2.67671416 19.8436719,3.62713444 C20.284713,3.23662723 20.8646812,3 21.5,3 C22.8903379,3 24,4.12083549 24,5.50345613 L24,13.5145117 C24.4178303,13.2003871 24.937197,13.014191 25.5,13.014191 C26.8903379,13.014191 28,14.1335355 28,15.5143168 L28,21.5 L28,21.5 Z" id="three-fingers" sketch:type="MSShapeGroup"></path>
        </g>
    </g>
</svg>

<svg width="32" height="32" viewBox="0 0 32 32" xmlns="http://www.w3.org/2000/svg"><path d="M19.5 29c-3.76 0-5.99-2.051-7.753-5.017-3.912-6.582-6.713-9.594-5.626-10.687 1.11-1.117 3.82 1.302 5.879 3.502V5.505a1.499 1.499 0 1 1 3 0V16h1V4.49a1.501 1.501 0 0 1 3 0V15h1V5.503C20 4.665 20.672 4 21.5 4c.834 0 1.5.673 1.5 1.503V16h1v-.498a1.5 1.5 0 1 1 3 0V21.5a7.5 7.5 0 0 1-7.5 7.5zm8.5-7.5a8.5 8.5 0 0 1-8.5 8.5c-3.113 0-6.398-1.453-8.66-5.572-3.263-5.945-7.436-9.845-5.449-11.832 1.422-1.422 3.654-.058 5.609 1.77V5.504a2.505 2.505 0 0 1 4.157-1.877A2.499 2.499 0 0 1 17.5 2c1.08 0 1.991.677 2.344 1.627A2.49 2.49 0 0 1 21.5 3C22.89 3 24 4.12 24 5.503v8.012c.418-.315.937-.5 1.5-.5 1.39 0 2.5 1.119 2.5 2.5V21.5z" fill="#929292" fill-rule="evenodd"/></svg>
